X:250
T:The Punter's graveyard
R:Reel
C:Daniel Compton
B:The Portland Collection
S:The Portland Collection
Z:Transcription, minor arr., chords:Mike Long
M:C|
L:1/8
K:D
"Bm"B3c dB~B2|"D"fgfe dcdB|"A"ABcd c3B|"A"ABcd "F#m"cA~A2|\
"Bm"B2Bc dB~B2|
"D"fgfe def^g|"A"aA~A2 c2cd|"A"edcA "G"B3A:|\
|:"Bm"BF~F2 "G"GBdB|"A"Acac bcac|
"Bm"bf~f2 bfaf|"A"ec~c2 "(G)"egfd|\
"Bm"BF~F2 "G"GBdB|"A"Acac bcac|"Bm"bf~f2 bfaf|"A"egfd "G"B3A:|
